css/elements/resume/IO.svg

<svg viewBox="0 0 60.96 58.03" xmlns="http://www.w3.org/2000/svg"><path d="m3 30.5v-17.22a10.28 10.28 0 0 1 10.28-10.28h34.4a10.28 10.28 0 0 1 10.32 10.28v17.22a10.28 10.28 0 0 1 -10.32 10.28h-19.16l-17.38 11.63v-13s-7.21-1.41-8.14-8.91z" fill="none" stroke="#fff" stroke-miterlimit="10" stroke-width="6"/></svg>

<svg xmlns="http://www.w3.org/2000/svg" viewBox="0 0 60.96 58.03">
  <defs>
    <style>
      .cls-1 {
        fill: none;
        stroke: #fff;
        stroke-miterlimit: 10;
        stroke-width: 6px;
      }
    </style>
  </defs>
  <g id="Layer_2" data-name="Layer 2">
    <g id="Layer_1-2" data-name="Layer 1">
      <path class="cls-1" d="M3,30.5V13.28A10.28,10.28,0,0,1,13.28,3h34.4A10.28,10.28,0,0,1,58,13.28V30.5A10.28,10.28,0,0,1,47.68,40.78H28.52L11.14,52.41v-13S3.93,38,3,30.5Z"/>
    </g>
  </g>
</svg>
